!!!COM: Felix Mendelssohn
!!!CNT: Deutsch
!!!TXO: Deutsch
!!!OTL: Fru2hlingslied
!!!LYR: C. Klingemann
!!!OPS: Op. 34
!!!ONM: No. 3
!!!ENC: Daniel Alt & Leigh VanHandel
!!!YOR: Sa2mmtliche Lieder fu2r eine Singstimme 
!!!YOR: Neu revidirt von Dr. L. Benda, Ausgabe fu2r mittlere Stimme
!!!YOR: Braunschweig. Henry Litolff's Verlag. Boston and New York: Arthur P. Schmidt.
!!!ODT: 1832/
**kern	**silbe
*staff1	*
=1-	=1
*clefG2	*
*k[b-]	*
*met(C)	*
*M4/4	*
1r	.
=2	=2
1r	.
=3	=3
1r	.
=4	=4
1r	.
=5	=5
1r	.
=6	=6
2r	.
4r	.
{4c	{Es
=7	=7
4f	bre-
8.c	-chen
16a	im
4a	schal-
8.f	-len-
16cc	-den
=8	=8
2cc	Rei-
4b-	-gen
4a	die
=9	=9
4a	Fru2h-
4g	-lings-
4f	-stim-
4g	-men
=10	=10
2a}	los,}
4r	.
{4c	{sie
=11	=11
4f	ko2n-
8.c	-nen's
16a	nicht
4a	la2n-
8.f	-ger
16dd	ver-
=12	=12
2dd	-schwei-
4a	-gen,
4dd	die
=13	=13
4cc	Won-
8.bn	-ne
16b	ist
4a	gar
4g	zu
=14	=14
2ee}	gross,}
4r	.
{4cc	{die
=15	=15
2cc	Won-
4g-	-ne,
4gn	die
=16	=16
4a	Won-
4cc	|
4bn	-ne
4a	ist
=17	=17
4g	gar
4bn	|
4ee	|
4dd	zu
=18	=18
2cc}	gross!}
2r	.
=19	=19
1r	.
=20	=20
1r	.
=21	=21
2r	.
4r	.
{4g	{Wo-
=22	=22
[1cc	-hin,
=23	=23
2.cc]	|
4cc	sie
=24	=24
4cc	ah-
8.b-	-nen
16a	es
4a	sel-
8.g	-ber
16g-	|
=25	=25
2g}	kaum,}
4r	.
{4d	{es
=26	=26
4d	ru2hrt
4e	|
4f	sie
4b-	ein
=27	=27
2b-	al-
4a	-ter,
4g	ein
=28	=28
4g	su2-
4f	|
4f	-sser
4e	|
=29	=29
[1f	Traum,
=30	=30
2f]}	|}
4r	.
{4b-	{ein
=31	=31
2b-	al-
4a	-ter,
4g	ein
=32	=32
4g	su2-
4f	|
4f	-sser
4e	|
=33	=33
2f}	Traum!}
2r	.
==	==
*-	*-